Numix/22/emotes/face-monkey.svg

<?xml version="1.0" encoding="UTF-8" standalone="no"?>
<svg
   xmlns:dc="http://purl.org/dc/elements/1.1/"
   xmlns:cc="http://creativecommons.org/ns#"
   xmlns:rdf="http://www.w3.org/1999/02/22-rdf-syntax-ns#"
   xmlns:svg="http://www.w3.org/2000/svg"
   xmlns="http://www.w3.org/2000/svg"
   xmlns:sodipodi="http://sodipodi.sourceforge.net/DTD/sodipodi-0.dtd"
   xmlns:inkscape="http://www.inkscape.org/namespaces/inkscape"
   width="22px"
   height="22px"
   viewBox="0 0 18 18"
   version="1.1"
   id="svg1366"
   inkscape:version="0.91 r"
   sodipodi:docname="face-monkey.svg">
  <metadata
     id="metadata1389">
    <rdf:RDF>
      <cc:Work
         rdf:about="">
        <dc:format>image/svg+xml</dc:format>
        <dc:type
           rdf:resource="http://purl.org/dc/dcmitype/StillImage" />
      </cc:Work>
    </rdf:RDF>
  </metadata>
  <defs
     id="defs1387" />
  <sodipodi:namedview
     pagecolor="#ffffff"
     bordercolor="#666666"
     borderopacity="1"
     objecttolerance="10"
     gridtolerance="10"
     guidetolerance="10"
     inkscape:pageopacity="0"
     inkscape:pageshadow="2"
     inkscape:window-width="640"
     inkscape:window-height="480"
     id="namedview1385" />
  <g
     id="surface1">
    <path
       style=" stroke:none;fill-rule:nonzero;fill:rgb(100%,80.784314%,24.313725%);fill-opacity:1;"
       d="M 15.75 9 C 15.75 12.210938 12.726562 14.8125 9 14.8125 C 5.273438 14.8125 2.25 12.210938 2.25 9 C 2.25 5.789062 5.273438 3.1875 9 3.1875 C 12.726562 3.1875 15.75 5.789062 15.75 9 Z M 15.75 9 "
       id="path1369" />
    <path
       style=" stroke:none;fill-rule:nonzero;fill:rgb(18.431373%,18.431373%,18.431373%);fill-opacity:1;"
       d="M 8.703125 10.269531 C 8.804688 10.316406 8.933594 10.347656 9.082031 10.328125 C 9.324219 10.304688 9.40625 10.226562 9.492188 10.128906 C 9.625 9.976562 9.675781 9.761719 9.480469 9.648438 C 9.316406 9.554688 8.96875 9.546875 8.742188 9.59375 C 8.191406 9.703125 8.375 10.113281 8.703125 10.269531 Z M 8.703125 10.269531 "
       id="path1371" />
    <path
       style=" stroke:none;fill-rule:nonzero;fill:rgb(87.058824%,44.313725%,21.176471%);fill-opacity:1;"
       d="M 11.207031 11.746094 C 10.457031 11.609375 8.855469 11.597656 7.800781 11.664062 C 5.265625 11.824219 6.113281 12.425781 7.640625 12.65625 C 8.101562 12.722656 8.703125 12.765625 9.378906 12.742188 C 10.484375 12.707031 10.875 12.589844 11.265625 12.449219 C 11.890625 12.226562 12.113281 11.914062 11.207031 11.746094 Z M 11.207031 11.746094 "
       id="path1373" />
    <path
       style=" stroke:none;fill-rule:nonzero;fill:rgb(52.156863%,36.078431%,32.156863%);fill-opacity:1;"
       d="M 9.195312 3.191406 C 6.238281 3.117188 3.570312 4.714844 2.617188 7.125 C 1.949219 7.128906 1.335938 7.484375 1 8.0625 C 0.667969 8.644531 0.667969 9.355469 1 9.9375 C 1.335938 10.515625 1.953125 10.875 2.621094 10.875 C 3.558594 13.222656 6.121094 14.796875 9.003906 14.796875 C 11.882812 14.796875 14.449219 13.222656 15.386719 10.875 C 16.050781 10.871094 16.664062 10.515625 17 9.9375 C 17.332031 9.355469 17.332031 8.644531 17 8.0625 C 16.664062 7.484375 16.050781 7.128906 15.382812 7.125 C 14.476562 4.832031 12.007812 3.261719 9.195312 3.191406 Z M 6.539062 5.996094 C 7.386719 6.039062 8.148438 6.777344 9.003906 6.753906 C 9.914062 6.78125 10.71875 5.9375 11.632812 6 C 11.84375 6.015625 12.070312 6.007812 12.277344 6.070312 C 12.851562 6.25 13.257812 6.695312 13.488281 7.21875 C 13.699219 7.707031 13.625 8.203125 13.472656 8.691406 C 13.347656 9.078125 13.34375 9.589844 13.402344 9.984375 C 13.453125 10.359375 13.667969 10.710938 13.691406 11.085938 C 13.753906 12.113281 12.863281 12.808594 11.96875 13.195312 C 11.089844 13.582031 10.007812 13.726562 9 13.710938 C 7.992188 13.726562 6.910156 13.582031 6.03125 13.195312 C 5.136719 12.808594 4.246094 12.113281 4.3125 11.085938 C 4.335938 10.707031 4.546875 10.359375 4.601562 9.984375 C 4.660156 9.589844 4.65625 9.078125 4.535156 8.691406 C 4.378906 8.199219 4.300781 7.707031 4.515625 7.21875 C 4.746094 6.695312 5.148438 6.25 5.726562 6.070312 C 5.929688 6.007812 6.15625 6.011719 6.367188 6 C 6.425781 5.996094 6.484375 5.996094 6.539062 5.996094 Z M 6.539062 5.996094 "
       id="path1375" />
    <path
       style=" stroke:none;fill-rule:nonzero;fill:rgb(39.607843%,39.607843%,39.607843%);fill-opacity:1;"
       d="M 7.6875 7.6875 C 7.6875 8.207031 7.269531 8.625 6.75 8.625 C 6.230469 8.625 5.8125 8.207031 5.8125 7.6875 C 5.8125 7.167969 6.230469 6.75 6.75 6.75 C 7.269531 6.75 7.6875 7.167969 7.6875 7.6875 Z M 7.6875 7.6875 "
       id="path1377" />
    <path
       style=" stroke:none;fill-rule:nonzero;fill:rgb(39.607843%,39.607843%,39.607843%);fill-opacity:1;"
       d="M 12.1875 7.6875 C 12.1875 8.207031 11.769531 8.625 11.25 8.625 C 10.730469 8.625 10.3125 8.207031 10.3125 7.6875 C 10.3125 7.167969 10.730469 6.75 11.25 6.75 C 11.769531 6.75 12.1875 7.167969 12.1875 7.6875 Z M 12.1875 7.6875 "
       id="path1379" />
    <path
       style=" stroke:none;fill-rule:nonzero;fill:rgb(100%,80.784314%,24.313725%);fill-opacity:1;"
       d="M 2.25 9.9375 C 1.980469 9.9375 1.734375 9.757812 1.601562 9.46875 C 1.464844 9.179688 1.464844 8.820312 1.601562 8.53125 C 1.734375 8.242188 1.980469 8.0625 2.25 8.0625 Z M 2.25 9.9375 "
       id="path1381" />
    <path
       style=" stroke:none;fill-rule:nonzero;fill:rgb(100%,80.784314%,24.313725%);fill-opacity:1;"
       d="M 15.75 9.9375 C 16.019531 9.9375 16.265625 9.757812 16.398438 9.46875 C 16.535156 9.179688 16.535156 8.820312 16.398438 8.53125 C 16.265625 8.242188 16.019531 8.0625 15.75 8.0625 Z M 15.75 9.9375 "
       id="path1383" />
  </g>
</svg>

<svg xmlns="http://www.w3.org/2000/svg" width="22" height="22" viewBox="0 0 18 18">
 <g>
  <path d="m 15.75 9 c 0 3.211 -3.02 5.813 -6.75 5.813 c -3.727 0 -6.75 -2.602 -6.75 -5.813 c 0 -3.211 3.02 -5.813 6.75 -5.813 c 3.727 0 6.75 2.602 6.75 5.813 m 0 0" style="fill:#ffce3d;fill-opacity:1;stroke:none;fill-rule:nonzero"/>
  <path d="m 8.703 10.27 c 0.102 0.047 0.23 0.078 0.379 0.059 c 0.242 -0.023 0.324 -0.102 0.41 -0.199 c 0.133 -0.152 0.184 -0.367 -0.012 -0.48 c -0.164 -0.094 -0.512 -0.102 -0.738 -0.055 c -0.551 0.109 -0.367 0.52 -0.039 0.676 m 0 0" style="fill:#2f2f2f;fill-opacity:1;stroke:none;fill-rule:nonzero"/>
  <path d="m 11.207 11.746 c -0.75 -0.137 -2.352 -0.148 -3.406 -0.082 c -2.535 0.16 -1.688 0.762 -0.16 0.992 c 0.461 0.066 1.063 0.109 1.738 0.086 c 1.105 -0.035 1.496 -0.152 1.887 -0.293 c 0.625 -0.223 0.848 -0.535 -0.059 -0.703 m 0 0" style="fill:#de7036;fill-opacity:1;stroke:none;fill-rule:nonzero"/>
  <path d="m 9.195 3.191 c -2.957 -0.074 -5.625 1.523 -6.578 3.934 c -0.668 0.004 -1.281 0.359 -1.617 0.938 c -0.332 0.582 -0.332 1.293 0 1.875 c 0.336 0.578 0.953 0.938 1.621 0.938 c 0.938 2.348 3.5 3.922 6.383 3.922 c 2.879 0 5.445 -1.574 6.383 -3.922 c 0.664 -0.004 1.277 -0.359 1.613 -0.938 c 0.332 -0.582 0.332 -1.293 0 -1.875 c -0.336 -0.578 -0.949 -0.934 -1.617 -0.938 c -0.906 -2.293 -3.375 -3.863 -6.188 -3.934 m -2.656 2.805 c 0.848 0.043 1.609 0.781 2.465 0.758 c 0.91 0.027 1.715 -0.816 2.629 -0.754 c 0.211 0.016 0.438 0.008 0.645 0.07 c 0.574 0.18 0.98 0.625 1.211 1.148 c 0.211 0.488 0.137 0.984 -0.016 1.473 c -0.125 0.387 -0.129 0.898 -0.07 1.293 c 0.051 0.375 0.266 0.727 0.289 1.102 c 0.063 1.027 -0.828 1.723 -1.723 2.109 c -0.879 0.387 -1.961 0.531 -2.969 0.516 c -1.01 0.016 -2.09 -0.129 -2.969 -0.516 c -0.895 -0.387 -1.785 -1.082 -1.719 -2.109 c 0.023 -0.379 0.234 -0.727 0.289 -1.102 c 0.059 -0.395 0.055 -0.906 -0.066 -1.293 c -0.156 -0.492 -0.234 -0.984 -0.02 -1.473 c 0.23 -0.523 0.633 -0.969 1.211 -1.148 c 0.203 -0.063 0.43 -0.059 0.641 -0.07 c 0.059 -0.004 0.117 -0.004 0.172 -0.004 m 0 0" style="fill:#855b52;fill-opacity:1;stroke:none;fill-rule:nonzero"/>
  <path d="m 7.688 7.688 c 0 0.52 -0.418 0.938 -0.938 0.938 c -0.52 0 -0.938 -0.418 -0.938 -0.938 c 0 -0.52 0.418 -0.938 0.938 -0.938 c 0.52 0 0.938 0.418 0.938 0.938 m 0 0" style="fill:#646464;fill-opacity:1;stroke:none;fill-rule:nonzero"/>
  <path d="m 12.188 7.688 c 0 0.52 -0.418 0.938 -0.938 0.938 c -0.52 0 -0.938 -0.418 -0.938 -0.938 c 0 -0.52 0.418 -0.938 0.938 -0.938 c 0.52 0 0.938 0.418 0.938 0.938 m 0 0" style="fill:#646464;fill-opacity:1;stroke:none;fill-rule:nonzero"/>
  <path d="m 2.25 9.938 c -0.27 0 -0.516 -0.18 -0.648 -0.469 c -0.137 -0.289 -0.137 -0.648 0 -0.938 c 0.133 -0.289 0.379 -0.469 0.648 -0.469 m 0 1.875" style="fill:#ffce3d;fill-opacity:1;stroke:none;fill-rule:nonzero"/>
  <path d="m 15.75 9.938 c 0.27 0 0.516 -0.18 0.648 -0.469 c 0.137 -0.289 0.137 -0.648 0 -0.938 c -0.133 -0.289 -0.379 -0.469 -0.648 -0.469 m 0 1.875" style="fill:#ffce3d;fill-opacity:1;stroke:none;fill-rule:nonzero"/>
 </g>
</svg>
